src/pos-icons/watch-variant.svg

<svg height="24" viewBox="0 0 24 24" width="24" xmlns="http://www.w3.org/2000/svg"><path d="m8 0-.83 5h-.17a2 2 0 0 0 -2 2v10c0 1.11.9 2 2 2h.17l.83 5h8l.83-5h.17a2 2 0 0 0 2-2v-10c0-1.11-.9-2-2-2h-.17l-.83-5zm-1 7h10v10h-10z"/></svg>

<?xml version="1.0" encoding="UTF-8"?><!DOCTYPE svg PUBLIC "-//W3C//DTD SVG 1.1//EN" "http://www.w3.org/Graphics/SVG/1.1/DTD/svg11.dtd"><svg xmlns="http://www.w3.org/2000/svg" xmlns:xlink="http://www.w3.org/1999/xlink" version="1.1" id="mdi-watch-variant" width="24" height="24" viewBox="0 0 24 24"><path d="M8,0L7.17,5H7A2,2 0 0,0 5,7V17C5,18.11 5.9,19 7,19H7.17L8,24H16L16.83,19H17A2,2 0 0,0 19,17V7C19,5.89 18.1,5 17,5H16.83L16,0H8M7,7H17V17H7V7Z" /></svg>
